svg/line/elipsis-double-v-alt.svg

<svg xmlns="http://www.w3.org/2000/svg" viewBox="0 0 24 24"><path d="M8.5 17c-1.1 0-2 .9-2 2s.9 2 2 2 2-.9 2-2-.9-2-2-2zm7-10c1.1 0 2-.9 2-2s-.9-2-2-2-2 .9-2 2 .9 2 2 2zm-7 3c-1.1 0-2 .9-2 2s.9 2 2 2 2-.9 2-2-.9-2-2-2zm7 0c-1.1 0-2 .9-2 2s.9 2 2 2 2-.9 2-2-.9-2-2-2zm0 7c-1.1 0-2 .9-2 2s.9 2 2 2 2-.9 2-2-.9-2-2-2zm-7-14c-1.1 0-2 .9-2 2s.9 2 2 2 2-.9 2-2-.9-2-2-2z"/></svg>

<svg xmlns="http://www.w3.org/2000/svg" enable-background="new 0 0 24 24" viewBox="0 0 24 24"><path d="M8.5,17c-1.1,0-2,0.9-2,2s0.9,2,2,2s2-0.9,2-2S9.6,17,8.5,17z M15.5,7c1.1,0,2-0.9,2-2s-0.9-2-2-2s-2,0.9-2,2S14.4,7,15.5,7z M8.5,10c-1.1,0-2,0.9-2,2s0.9,2,2,2s2-0.9,2-2S9.6,10,8.5,10z M15.5,10c-1.1,0-2,0.9-2,2s0.9,2,2,2s2-0.9,2-2S16.6,10,15.5,10z M15.5,17c-1.1,0-2,0.9-2,2s0.9,2,2,2s2-0.9,2-2S16.6,17,15.5,17z M8.5,3c-1.1,0-2,0.9-2,2s0.9,2,2,2s2-0.9,2-2S9.6,3,8.5,3z"/></svg>
